icons/svg/cup-off.svg

﻿<?xml version="1.0" encoding="utf-8"?>
<!DOCTYPE svg PUBLIC "-//W3C//DTD SVG 1.1//EN" "http://www.w3.org/Graphics/SVG/1.1/DTD/svg11.dtd">
<svg xmlns="http://www.w3.org/2000/svg" xmlns:xlink="http://www.w3.org/1999/xlink" version="1.1" baseProfile="full" width="24" height="24" viewBox="0 0 24.00 24.00" enable-background="new 0 0 24.00 24.00" xml:space="preserve">
	<path fill="#000000" fill-opacity="1" stroke-width="0.2" stroke-linejoin="round" d="M 0.999999,4.26849L 2.27711,3.00001L 21,21.7229L 19.7315,23L 18.2721,21.5406C 17.9264,21.8264 17.483,21.9981 16.9996,21.9981L 6.99962,21.9981C 5.97362,21.9981 5.12861,21.2261 5.01362,20.2311L 3.52985,6.79834L 0.999999,4.26849 Z M 18.3246,7.99807L 18.7666,3.99807L 5.82076,3.99807L 3.82078,1.99809L 20.9996,1.99809L 19.2908,17.4681L 9.82076,7.99807L 18.3246,7.99807 Z "/>
</svg>

<svg xmlns="http://www.w3.org/2000/svg" version="1.1" baseProfile="full" width="24" height="24" viewBox="0 0 24.00 24.00" xml:space="preserve"><path fill="#000" fill-opacity="1" stroke-width=".2" stroke-linejoin="round" d="M1 4.268L2.277 3 21 21.723 19.732 23l-1.46-1.46c-.346.286-.79.458-1.272.458H7c-1.026 0-1.87-.772-1.986-1.767L3.53 6.8 1 4.268zm17.325 3.73l.442-4H5.82l-2-2H21l-1.71 15.47-9.47-9.47h8.505z"/></svg>
